packages/assets/static/images/icons/bold/threads-logo--bold.svg

<svg width="24" height="24" viewBox="0 0 24 24" xmlns="http://www.w3.org/2000/svg">
<path d="M18.2037 11.2931C17.9087 11.0717 17.595 10.8763 17.2662 10.7091C16.9175 8.67656 15.7278 7.20187 13.9363 6.65906C11.9319 6.05156 9.62094 6.78937 8.5625 8.37562C8.39691 8.62427 8.33687 8.9285 8.39559 9.22141C8.45431 9.51432 8.62699 9.77191 8.87563 9.9375C9.12427 10.1031 9.4285 10.1631 9.72141 10.1044C10.0143 10.0457 10.2719 9.87302 10.4375 9.62438C10.9503 8.85563 12.2291 8.49188 13.2884 8.8125C13.5859 8.90064 13.8627 9.04763 14.1023 9.24474C14.342 9.44186 14.5396 9.68508 14.6834 9.96C14.4075 9.93178 14.1302 9.9177 13.8528 9.91781C10.6775 9.91781 8.375 11.7394 8.375 14.25C8.375 16.3969 10.0194 17.955 12.2853 17.955C12.9379 17.9513 13.583 17.8166 14.1826 17.559C14.7821 17.3013 15.3239 16.9259 15.7756 16.455C16.3381 15.8709 16.9831 14.9119 17.2494 13.4484C17.8306 14.0503 18.125 14.8237 18.125 15.7537C18.125 17.4169 16.3372 19.8787 12.5 19.8787C8.21 19.8787 6.125 17.3025 6.125 12.0037C6.125 6.705 8.21 4.12875 12.5 4.12875C15.4137 4.12875 17.2812 5.29313 18.2 7.69125C18.3072 7.96973 18.5206 8.19423 18.7933 8.31536C19.0659 8.4365 19.3756 8.44435 19.6541 8.33719C19.9325 8.23002 20.157 8.01662 20.2782 7.74393C20.3993 7.47124 20.4072 7.1616 20.3 6.88312C19.0409 3.60375 16.3438 1.875 12.5 1.875C6.93781 1.875 3.875 5.47031 3.875 12C3.875 18.5297 6.93781 22.125 12.5 22.125C15.44 22.125 17.2887 20.9953 18.3228 20.0484C19.6072 18.87 20.375 17.2631 20.375 15.75C20.375 13.9088 19.625 12.3675 18.2037 11.2931ZM14.1537 14.8922C13.9125 15.1458 13.6229 15.3484 13.3019 15.488C12.981 15.6276 12.6353 15.7014 12.2853 15.705C11.5194 15.705 10.625 15.3244 10.625 14.25C10.625 12.8194 12.2975 12.1678 13.8509 12.1678C14.2772 12.1674 14.702 12.2152 15.1175 12.3103C15.065 13.3997 14.735 14.2884 14.1537 14.8922Z"/>
</svg>

<svg viewBox="0 0 24 24" xmlns="http://www.w3.org/2000/svg" aria-hidden="true" fill="currentColor"><path d="M18.204 11.293a6.4 6.4 0 0 0-.938-.584c-.348-2.032-1.538-3.507-3.33-4.05-2.004-.607-4.315.13-5.373 1.717a1.126 1.126 0 0 0 1.874 1.248c.513-.768 1.792-1.132 2.851-.812a2.32 2.32 0 0 1 1.395 1.148 8 8 0 0 0-.83-.042c-3.175 0-5.478 1.821-5.478 4.332 0 2.147 1.644 3.705 3.91 3.705a4.88 4.88 0 0 0 3.49-1.5c.563-.584 1.208-1.543 1.474-3.007.582.602.876 1.376.876 2.306 0 1.663-1.788 4.125-5.625 4.125-4.29 0-6.375-2.577-6.375-7.875 0-5.299 2.085-7.875 6.375-7.875 2.914 0 4.781 1.164 5.7 3.562a1.125 1.125 0 0 0 2.1-.808c-1.26-3.28-3.956-5.008-7.8-5.008C6.938 1.875 3.875 5.47 3.875 12S6.938 22.125 12.5 22.125c2.94 0 4.789-1.13 5.823-2.077 1.284-1.178 2.052-2.785 2.052-4.298 0-1.841-.75-3.383-2.171-4.457m-4.05 3.6a2.61 2.61 0 0 1-1.869.812c-.766 0-1.66-.38-1.66-1.455 0-1.43 1.672-2.082 3.226-2.082.426 0 .851.047 1.266.142-.052 1.09-.382 1.978-.963 2.582"/></svg>
